svg/fluentui-system-icons/ic_fluent_document_header_20_filled.svg

<svg width="20" height="20" viewBox="0 0 20 20" fill="none" xmlns="http://www.w3.org/2000/svg">
<path d="M6 2C4.89543 2 4 2.89543 4 4V16C4 17.1046 4.89543 18 6 18H14C15.1046 18 16 17.1046 16 16V4C16 2.89543 15.1046 2 14 2H6ZM7 4H13C13.5523 4 14 4.44772 14 5C14 5.55228 13.5523 6 13 6H7C6.44772 6 6 5.55228 6 5C6 4.44772 6.44772 4 7 4Z" fill="#212121"/>
</svg>

<svg xmlns="http://www.w3.org/2000/svg" width="20" height="20"><path d="M6 2a2 2 0 0 0-2 2v12a2 2 0 0 0 2 2h8a2 2 0 0 0 2-2V4a2 2 0 0 0-2-2H6Zm1 2h6a1 1 0 1 1 0 2H7a1 1 0 0 1 0-2Z"/></svg>
